X: 38601
T: Stoned Giants
R: reel
M: 4/4
K: Eminor
|:"Em" E2 BA BcAB|GAFG EDB,D|"D" CB,FG AGAd|"Bm" (3cBA FB AGFB,|
"Em" EFGA BedB|"C" GEFE"D" DFAB|"Em" edBd"Bm" BAFB|AFGB"Em" e4:|
|:[M:9/8]"C" edc"G" dcB"Am" cBA|[M:4/4]"Em" BEBd"Am" cEcd|"Em" BcAB GBFB|[M:2/4]"C" Ee"G" dB|
[M:4/4]"Am" cBAG"D" FDFG|AGFE"B7" ^DFBA|"Am7" (3cdc (3BcB (3ABA (3GAG|"D" (3FGF (4:4:4E/F/E/D/"Em" E4:|

